Sphotoshop/Vintage.cube
TITLE "Generated by Resolve"
LUT_3D_SIZE 33
0.136126 0 0.0607156
0.186374 0 0.0580758
0.239307 0 0.0536812
0.295506 0 0.0495003
0.353292 0 0.0445563
0.411658 0 0.0394751
0.469841 0 0.0344854
0.527245 0 0.0298161
0.583062 0 0.0257877
0.637049 0 0.022385
0.68716 0 0.019791
0.733364 0 0.0182956
0.776852 0 0.0175937
0.818647 0 0.0174105
0.8598 0 0.0176852
0.900603 0 0.0179751
0.941955 0 0.0179751
0.985046 0 0.0175631
1 0 0.0170901
1 0 0.0165866
1 0 0.0162661
1 0 0.01561
1 0 0.0148318
1 0 0.0139467
1 0 0.0129702
1 0 0.0118868
1 0 0.0110628
1 0 0.00979629
1 0 0.0084535
1 0 0.00701915
1 0 0.00547799
1 0 0.00419623
1 0 0.00247196
0.119539 0 0.0441138
0.169604 0 0.0413062
0.223438 0 0.0378119
0.279469 0 0.0334478
0.337392 0 0.0286564
0.395941 0 0.0237583
0.454276 0 0.0189212
0.511879 0 0.0144503
0.567895 0 0.0106203
0.621805 0 0.00714122
0.672053 0 0.00466926
0.718364 0 0.00329595
0.761929 0 0.00267033
0.80412 0 0.00289921
0.845167 0 0.0030518
0.885939 0 0.00331121
0.927382 0 0.0033875
0.970504 0 0.00302129
1 0 0.0027924
1 0 0.00248722
1 0 0.0019379
1 0 0.0012665
1 0 0.000503548
1 0 0
1 0 0
1 0 0
1 0 0
1 0 0
1 0 0
1 0 0
1 0 0
1 0 0
1 0 0
0.103365 0.0311131 0.0279545
0.153552 0.0284276 0.0252689
0.207294 0.0248264 0.0216678
0.263447 0.0205844 0.0174258
0.321462 0.0158846 0.012726
0.380133 0.0111086 0.00794995
0.438911 0.00672923 0.00355535
0.496544 0.00228885 0
0.552422 0 0
0.606409 0 0
0.656733 0 0
0.703258 0 0
0.747143 0 0
0.789075 0 0
0.830152 0 0
0.87097 0 0
0.912459 0 0
0.955825 0 0
0.999481 0 0
1 0 0
1 0 0
1 0 0
1 0 0
1 0 0
1 0 0
1 0 0
1 0 0
1 0 0
1 0 0
1 0 0
1 0 0
1 0 0
1 0 0
0.0878614 0.0778515 0.0124361
0.13814 0.0752575 0.00985733
0.191989 0.0717784 0.00636301
0.24828 0.0676738 0.00227359
0.306432 0.0630961 0
0.365484 0.0587167 0
0.424033 0.0540932 0
0.481743 0.0497292 0
0.537728 0.0458686 0
0.591806 0.0425422 0
0.642252 0.0402838 0
0.688975 0.0393072 0
0.732677 0.0388342 0
0.77467 0.0388495 0
0.815778 0.0390936 0
0.856626 0.0394141 0
0.898482 0.0399023 0
0.94168 0.0395972 0
0.985183 0.0392157 0
1 0.0387884 0
1 0.0382391 0
1 0.0377203 0
1 0.0371099 0
1 0.0362097 0
1 0.0352026 0
1 0.0340734 0
1 0.0328069 0
1 0.0316777 0
1 0.0303044 0
1 0.0287175 0
1 0.0270237 0
1 0.0251926 0
1 0.0232548 0
0.0724346 0.125124 0
0.12282 0.122637 0
0.176745 0.119219 0
0.233433 0.115511 0
0.291676 0.111055 0
0.3505 0.106432 0
0.409125 0.101869 0
0.46688 0.0975509 0
0.522911 0.0937362 0
0.577371 0.0908064 0
0.627802 0.0885328 0
0.674296 0.0873274 0
0.718013 0.0868696 0
0.760021 0.0869001 0
0.801205 0.0872053 0
0.842344 0.0878309 0
0.883864 0.0879835 0
0.927031 0.0876631 0
0.97052 0.0872511 0
1 0.0867933 0
1 0.0863508 0
1 0.0858473 0
1 0.0850233 0
1 0.0840467 0
1 0.0829633 0
1 0.0817578 0
1 0.0806592 0
1 0.0793317 0
1 0.07776 0
1 0.0760662 0
1 0.0742657 0
1 0.0723583 0
1 0.070634 0
0.0569619 0.172793 0
0.107454 0.170413 0
0.161761 0.167376 0
0.218235 0.163455 0
0.276509 0.159014 0
0.335378 0.154452 0
0.394049 0.14995 0
0.451865 0.145693 0
0.508263 0.142245 0
0.562402 0.138979 0
0.612848 0.136721 0
0.659342 0.135531 0
0.703075 0.135073 0
0.745113 0.135134 0
0.786526 0.135668 0
0.827359 0.135973 0
0.868833 0.136095 0
0.911986 0.13576 0
0.955444 0.135317 0
0.999359 0.135149 0
1 0.134493 0
1 0.133715 0
1 0.132815 0
1 0.131792 0
1 0.130739 0
1 0.129641 0
1 0.128206 0
1 0.12668 0
1 0.125017 0
1 0.123201 0
1 0.121431 0
1 0.119509 0
1 0.117357 0
0.0422675 0.220539 0
0.0931258 0.21854 0
0.147204 0.215274 0
0.203677 0.211368 0
0.262013 0.206958 0
0.320897 0.202411 0
0.379858 0.198199 0
0.437751 0.194018 0
0.493812 0.190234 0
0.547951 0.186984 0
0.598398 0.18471 0
0.644877 0.183505 0
0.688914 0.183368 0
0.730877 0.183352 0
0.771969 0.183566 0
0.812757 0.183825 0
0.854185 0.183886 0
0.897261 0.183474 0
0.940963 0.183291 0
0.984482 0.182727 0
1 0.18201 0
1 0.181125 0
1 0.180117 0
1 0.17908 0
1 0.178058 0
1 0.176654 0
1 0.175097 0
1 0.173404 0
1 0.171603 0
1 0.169848 0
1 0.167941 0
1 0.165713 0
1 0.163363 0
0.0289158 0.268467 0
0.0794842 0.266163 0
0.133562 0.262913 0
0.190051 0.259007 0
0.248386 0.254627 0
0.307546 0.25034 0
0.366308 0.24593 0
0.424125 0.241672 0
0.480171 0.237873 0
0.534279 0.234577 0
0.58468 0.232273 0
0.631464 0.231373 0
0.675135 0.230854 0
0.717037 0.230777 0
0.758038 0.2309 0
0.798764 0.231113 0
0.840131 0.231113 0
0.883467 0.230961 0
0.926726 0.230335 0
0.970138 0.229648 0
1 0.22884 0
1 0.227878 0
1 0.227085 0
1 0.225803 0
1 0.224384 0
1 0.222873 0
1 0.22121 0
1 0.219455 0
1 0.217716 0
1 0.21561 0
1 0.213397 0
1 0.211063 0
1 0.208545 0
0.0165103 0.315633 0
0.0670787 0.313329 0
0.121172 0.310094 0
0.177676 0.306188 0
0.236332 0.302129 0
0.295201 0.297551 0
0.353841 0.293034 0
0.411627 0.288746 0
0.467643 0.284916 0
0.521935 0.281804 0
0.572366 0.27953 0
0.618738 0.278202 0
0.662333 0.277623 0
0.704173 0.277485 0
0.745098 0.277531 0
0.786007 0.277928 0
0.827283 0.277836 0
0.870207 0.277256 0
0.91339 0.276555 0
0.956664 0.275746 0
1 0.274784 0
1 0.274006 0
1 0.27277 0
1 0.271382 0
1 0.269825 0
1 0.268101 0
1 0.266331 0
1 0.264637 0
1 0.262516 0
1 0.260227 0
1 0.257801 0
1 0.255268 0
1 0.252735 0
0.00544747 0.36228 0
0.0560006 0.359945 0
0.110201 0.356817 0
0.166857 0.353094 0
0.225147 0.348653 0
0.283986 0.344045 0
0.342565 0.339467 0
0.400275 0.335088 0
0.456428 0.331411 0
0.510552 0.32813 0
0.560815 0.325689 0
0.607095 0.324269 0
0.650568 0.323568 0
0.692302 0.323323 0
0.733425 0.323568 0
0.773983 0.323598 0
0.815091 0.323354 0
0.857847 0.322621 0
0.900908 0.321782 0
0.944091 0.320882 0
0.987945 0.320104 0
1 0.318837 0
1 0.317403 0
1 0.315877 0
1 0.314183 0
1 0.312642 0
1 0.310597 0
1 0.308431 0
1 0.306157 0
1 0.303731 0
1 0.301167 0
1 0.298665 0
1 0.295781 0
0 0.407965 0
0.0470741 0.405737 0
0.101305 0.402625 0
0.157702 0.398627 0
0.215915 0.394125 0
0.274678 0.389441 0
0.333211 0.384817 0
0.39118 0.380697 0
0.446998 0.376684 0
0.500893 0.373159 0
0.551064 0.370642 0
0.597253 0.369131 0
0.640818 0.368521 0
0.682536 0.368261 0
0.723217 0.368063 0
0.763622 0.367941 0
0.804623 0.36759 0
0.847242 0.36672 0
0.890364 0.365942 0
0.933425 0.36492 0
0.976822 0.363684 0
1 0.362295 0
1 0.360708 0
1 0.358938 0
1 0.357366 0
1 0.355352 0
1 0.353185 0
1 0.35082 0
1 0.348302 0
1 0.345678 0
1 0.343206 0
1 0.340291 0
1 0.337179 0
0 0.453025 0
0.0400244 0.450599 0
0.0939803 0.447227 0
0.150317 0.443168 0
0.208438 0.43856 0
0.267185 0.433875 0
0.325841 0.429358 0
0.383383 0.424826 0
0.439124 0.420722 0
0.492882 0.417075 0
0.542885 0.414389 0
0.58912 0.412909 0
0.632532 0.412161 0
0.674006 0.411643 0
0.714534 0.411307 0
0.754742 0.410986 0
0.795575 0.410468 0
0.8383 0.409689 0
0.881117 0.408621 0
0.923934 0.40734 0
0.967117 0.40589 0
1 0.404318 0
1 0.402594 0
1 0.400977 0
1 0.398886 0
1 0.396628 0
1 0.394263 0
1 0.391745 0
1 0.389334 0
1 0.386465 0
1 0.383459 0
1 0.380362 0
1 0.377096 0
0 0.496712 0
0.0345617 0.494179 0
0.0883955 0.490684 0
0.14464 0.486519 0
0.202747 0.48191 0
0.261555 0.477287 0
0.319829 0.472389 0
0.377218 0.467704 0
0.432837 0.463478 0
0.486488 0.459724 0
0.536706 0.457237 0
0.582574 0.455421 0
0.62565 0.454307 0
0.666972 0.453651 0
0.707378 0.453178 0
0.74757 0.452857 0
0.788373 0.452293 0
0.830655 0.451087 0
0.873228 0.449775 0
0.915908 0.448356 0
0.958907 0.446723 0
1 0.445121 0
1 0.443259 0
1 0.441184 0
1 0.438926 0
1 0.436484 0
1 0.43386 0
1 0.431373 0
1 0.428534 0
1 0.425498 0
1 0.422278 0
1 0.418891 0
1 0.415412 0
0 0.539025 0
0.0313268 0.536416 0
0.0850538 0.532799 0
0.141451 0.528801 0
0.199344 0.52398 0
0.257786 0.518975 0
0.315953 0.513985 0
0.373205 0.509148 0
0.428672 0.504784 0
0.482414 0.501122 0
0.532174 0.498177 0
0.577935 0.496223 0
0.620829 0.494957 0
0.661936 0.494072 0
0.702266 0.493538 0
0.742367 0.493111 0
0.782849 0.492241 0
0.824933 0.490822 0
0.867262 0.489265 0
0.909728 0.487633 0
0.952758 0.486046 0
0.996063 0.484184 0
1 0.482002 0
1 0.479667 0
1 0.477211 0
1 0.474601 0
1 0.472084 0
1 0.469093 0
1 0.465965 0
1 0.46273 0
1 0.459342 0
1 0.456001 0
1 0.452277 0
0 0.579797 0
0.0304723 0.57705 0
0.0844129 0.573648 0
0.140368 0.569223 0
0.198093 0.564218 0
0.256336 0.55903 0
0.314351 0.553872 0
0.371511 0.548943 0
0.42707 0.544671 0
0.480354 0.540551 0
0.529885 0.537392 0
0.575479 0.535271 0
0.618235 0.533852 0
0.65948 0.53312 0
0.699474 0.532235 0
0.739147 0.53138 0
0.779446 0.530327 0
0.821393 0.528771 0
0.86363 0.527138 0
0.90605 0.52546 0
0.948653 0.52343 0
0.991653 0.521279 0
1 0.518944 0
1 0.516396 0
1 0.513832 0
1 0.511101 0
1 0.50811 0
1 0.504967 0
1 0.501625 0
1 0.4981 0
1 0.494667 0
1 0.490974 0
1 0.487037 0
0 0.619242 0
0.0324102 0.616358 0
0.0858473 0.612467 0
0.141665 0.607889 0
0.199268 0.602777 0
0.257359 0.597421 0
0.31548 0.592371 0
0.372381 0.587198 0
0.427512 0.582483 0
0.480659 0.578241 0
0.530007 0.574884 0
0.575372 0.572549 0
0.618189 0.571191 0
0.658976 0.569986 0
0.698817 0.568948 0
0.738277 0.567895 0
0.778332 0.566583 0
0.820111 0.564874 0
0.862303 0.56318 0
0.904356 0.561151 0
0.946746 0.558892 0
0.989471 0.556466 0
1 0.553918 0
1 0.551339 0
1 0.548577 0
1 0.54548 0
1 0.542214 0
1 0.538842 0
1 0.535317 0
1 0.531838 0
1 0.527901 0
1 0.523812 0
1 0.519615 0
0 0.657176 0
0.0354162 0.654124 0
0.0886702 0.650034 0
0.144259 0.645243 0
0.201678 0.639933 0
0.259922 0.634745 0
0.317586 0.629236 0
0.374289 0.623865 0
0.429175 0.618906 0
0.482124 0.61445 0
0.531334 0.610956 0
0.576806 0.608728 0
0.61912 0.606851 0
0.659632 0.605402 0
0.699275 0.604166 0
0.738582 0.602945 0
0.778729 0.60174 0
0.820188 0.599695 0
0.861906 0.597528 0
0.903761 0.5953 0
0.945983 0.592889 0
0.988571 0.590326 0
1 0.587701 0
1 0.584741 0
1 0.581643 0
1 0.578363 0
1 0.574853 0
1 0.571267 0
1 0.567575 0
1 0.563607 0
1 0.559442 0
1 0.555016 0
1 0.550408 0
0 0.693858 0
0.0392462 0.690639 0
0.0923629 0.686412 0
0.148013 0.681666 0
0.20528 0.676219 0
0.262989 0.670497 0
0.32047 0.664805 0
0.377035 0.659281 0
0.431739 0.654154 0
0.484703 0.649714 0
0.533684 0.645991 0
0.578683 0.64329 0
0.620829 0.64126 0
0.661158 0.639612 0
0.700526 0.638102 0
0.739864 0.636912 0
0.779553 0.635248 0
0.820844 0.633051 0
0.862333 0.630655 0
0.903914 0.628138 0
0.945937 0.625528 0
0.98851 0.62295 0
1 0.619928 0
1 0.616678 0
1 0.613245 0
1 0.609674 0
1 0.606058 0
1 0.602243 0
1 0.598032 0
1 0.593637 0
1 0.589136 0
1 0.584497 0
1 0.579858 0
0 0.729549 0
0.0435798 0.726085 0
0.0966659 0.721843 0
0.152056 0.716838 0
0.209079 0.711147 0
0.266575 0.705211 0
0.323796 0.69926 0
0.380133 0.693523 0
0.434913 0.688457 0
0.487495 0.683619 0
0.536217 0.679652 0
0.580941 0.676677 0
0.622873 0.674434 0
0.663035 0.672618 0
0.702495 0.671199 0
0.741314 0.66949 0
0.780728 0.667536 0
0.821805 0.665125 0
0.863127 0.662562 0
0.904738 0.660075 0
0.946395 0.657115 0
0.988418 0.653986 0
1 0.650721 0
1 0.647242 0
1 0.643549 0
1 0.63978 0
1 0.635645 0
1 0.631403 0
1 0.626978 0
1 0.622324 0
1 0.617548 0
1 0.612726 0
1 0.607645 0
0 0.76437 0
0.0481422 0.761013 0
0.100801 0.756344 0
0.155825 0.750973 0
0.212665 0.745098 0
0.270008 0.738994 0
0.327214 0.733028 0
0.383398 0.727138 0
0.43769 0.721584 0
0.490013 0.716518 0
0.538582 0.712383 0
0.583108 0.709209 0
0.624979 0.706905 0
0.664927 0.704875 0
0.703929 0.702998 0
0.742565 0.701106 0
0.78172 0.698909 0
0.822461 0.696147 0
0.863737 0.693523 0
0.90486 0.690562 0
0.946288 0.687373 0
0.987976 0.683894 0
1 0.680201 0
1 0.676371 0
1 0.672618 0
1 0.668421 0
1 0.663996 0
1 0.659403 0
1 0.654688 0
1 0.649897 0
1 0.645014 0
1 0.639796 0
1 0.634424 0
0.00311284 0.79852 0
0.0521706 0.794705 0
0.104677 0.789868 0
0.159487 0.784283 0
0.216052 0.778134 0
0.273304 0.771939 0
0.330297 0.765774 0
0.386206 0.759609 0
0.440253 0.753811 0
0.492317 0.74847 0
0.540642 0.744106 0
0.585184 0.740932 0
0.626703 0.738293 0
0.666316 0.735912 0
0.704982 0.7337 0
0.743343 0.731533 0
0.782284 0.729122 0
0.822995 0.726345 0
0.86363 0.723079 0
0.904341 0.719707 0
0.945449 0.716182 0
0.986908 0.712489 0
1 0.708766 0
1 0.704601 0
1 0.700282 0
1 0.695842 0
1 0.691234 0
1 0.686442 0
1 0.681651 0
1 0.676539 0
1 0.671321 0
1 0.665965 0
1 0.660426 0
0.00662242 0.831754 0
0.0554055 0.82768 0
0.107698 0.822629 0
0.162356 0.816892 0
0.218997 0.810819 0
0.275853 0.804227 0
0.332433 0.797635 0
0.388144 0.791272 0
0.442008 0.785306 0
0.493965 0.779843 0
0.542107 0.775296 0
0.58613 0.771618 0
0.627344 0.768658 0
0.666728 0.766064 0
0.705089 0.763546 0
0.743191 0.76112 0
0.781811 0.758389 0
0.822003 0.755093 0
0.862425 0.751614 0
0.902861 0.747967 0
0.943633 0.744091 0
0.98497 0.740276 0
1 0.736141 0
1 0.731792 0
1 0.727245 0
1 0.72253 0
1 0.717678 0
1 0.712917 0
1 0.70779 0
1 0.70248 0
1 0.697032 0
1 0.691478 0
1 0.685847 0
0.009308 0.864332 0
0.0578927 0.860044 0
0.109957 0.85478 0
0.164569 0.848997 0
0.220752 0.842466 0
0.277424 0.835691 0
0.333745 0.82884 0
0.38912 0.822141 0
0.442786 0.815976 0
0.494545 0.810315 0
0.542306 0.805386 0
0.585977 0.801358 0
0.62678 0.797971 0
0.665797 0.795026 0
0.704051 0.792401 0
0.741848 0.78967 0
0.780102 0.786557 0
0.819944 0.78291 0
0.86009 0.779156 0
0.900328 0.775326 0
0.941115 0.771466 0
0.981994 0.767208 0
1 0.762768 0
1 0.758221 0
1 0.753521 0
1 0.748806 0
1 0.743786 0
1 0.738598 0
1 0.733303 0
1 0.727871 0
1 0.722301 0
1 0.716762 0
1 0.710933 0
0.0105135 0.896361 0
0.0589609 0.89192 0
0.110994 0.886625 0
0.165087 0.880323 0
0.220951 0.873472 0
0.277348 0.866423 0
0.333455 0.859373 0
0.388785 0.852613 0
0.441962 0.84596 0
0.493156 0.83975 0
0.540627 0.834501 0
0.58407 0.830259 0
0.624689 0.826703 0
0.663523 0.82356 0
0.701305 0.820462 0
0.738781 0.817411 0
0.776837 0.814115 0
0.81648 0.810254 0
0.856458 0.806348 0
0.896529 0.802335 0
0.936919 0.798093 0
0.977661 0.793683 0
1 0.789075 0
1 0.784298 0
1 0.779553 0
1 0.774578 0
1 0.769406 0
1 0.764065 0
1 0.758587 0
1 0.753017 0
1 0.747524 0
1 0.741711 0
1 0.735759 0
0.0110933 0.927855 0
0.0591897 0.923079 0
0.110765 0.917311 0
0.16463 0.910796 0
0.220172 0.903609 0
0.276173 0.896162 0
0.332113 0.88893 0
0.386923 0.881682 0
0.439887 0.8748 0
0.490806 0.868315 0
0.537911 0.862715 0
0.581125 0.858228 0
0.621607 0.854536 0
0.660121 0.851072 0
0.697658 0.84773 0
0.734859 0.844404 0
0.772686 0.840879 0
0.812268 0.836973 0
0.852079 0.832883 0
0.891875 0.828595 0
0.932036 0.824125 0
0.972595 0.819532 0
1 0.814801 0
1 0.810086 0
1 0.80502 0
1 0.799832 0
1 0.794522 0
1 0.78909 0
1 0.783658 0
1 0.777996 0
1 0.772168 0
1 0.766262 0
1 0.760235 0
0.0109407 0.958053 0
0.0586709 0.952911 0
0.109819 0.946731 0
0.163348 0.939864 0
0.218647 0.932448 0
0.274617 0.924971 0
0.330022 0.917205 0
0.384497 0.909606 0
0.437201 0.902464 0
0.487922 0.895781 0
0.535042 0.890211 0
0.577935 0.88539 0
0.61799 0.88127 0
0.656306 0.877607 0
0.69369 0.874128 0
0.73077 0.87068 0
0.768536 0.867079 0
0.807797 0.862852 0
0.847364 0.858534 0
0.887037 0.854109 0
0.927062 0.849515 0
0.967544 0.844831 0
1 0.84004 0
1 0.835019 0
1 0.829862 0
1 0.824552 0
1 0.819104 0
1 0.813672 0
1 0.808072 0
1 0.802289 0
1 0.796384 0
1 0.790372 0
1 0.784253 0
0.00956741 0.987015 0
0.057084 0.981643 0
0.107973 0.975204 0
0.161364 0.9682 0
0.216342 0.960479 0
0.27187 0.952544 0
0.327092 0.94461 0
0.381353 0.936797 0
0.433783 0.929366 0
0.484443 0.922637 0
0.531197 0.916686 0
0.573922 0.911727 0
0.613809 0.907423 0
0.651896 0.903532 0
0.689128 0.899886 0
0.726177 0.896422 0
0.763684 0.892546 0
0.802792 0.888167 0
0.842176 0.883665 0
0.881697 0.879103 0
0.921691 0.874464 0
0.962097 0.869718 0
1 0.864698 0
1 0.859541 0
1 0.854276 0
1 0.84889 0
1 0.843549 0
1 0.837903 0
1 0.832135 0
1 0.826276 0
1 0.820325 0
1 0.814343 0
1 0.808225 0
0.00727855 1 0
0.05449 1 0
0.105364 1 0
0.158389 0.995529 0
0.213123 0.987549 0
0.26836 0.979339 0
0.323369 0.971176 0
0.377478 0.963211 0
0.429938 0.955825 0
