Sphotoshop/Vintage.cube
TITLE "Generated by Resolve"
LUT_3D_SIZE 5
0.136126 0 0.0607156
0.583062 0 0.0257877
0.941955 0 0.0179751
1 0 0.0129702
1 0 0.00247196
0.0165103 0.315633 0
0.467643 0.284916 0
0.827283 0.277836 0
1 0.269825 0
1 0.252735 0
0 0.657176 0
0.429175 0.618906 0
0.778729 0.60174 0
1 0.581643 0
1 0.550408 0
0.0110933 0.927855 0
0.439887 0.8748 0
0.772686 0.840879 0
1 0.80502 0
1 0.760235 0
0 1 0
0.402731 1 0
0.727352 1 0
1 0.996597 0
1 0.949294 0
0.11986 0 0.582559
0.567712 0 0.548562
0.927413 0 0.541543
1 0 0.536767
1 0 0.525826
0.00221256 0.30132 0.464912
0.45304 0.270314 0.43389
0.811994 0.262547 0.426123
1 0.253697 0.417273
1 0.235279 0.398856
0 0.640452 0.431571
0.411475 0.60119 0.392325
0.759289 0.5823 0.373419
1 0.560983 0.352102
1 0.527825 0.318944
0 0.906371 0.452308
0.416526 0.851438 0.397375
0.748012 0.816205 0.362142
1 0.779248 0.3252
1 0.733883 0.279835
0 1 0.42269
0.376242 1 0.357092
0.700572 1 0.314702
1 0.969619 0.273457
1 0.922652 0.226505
0.124254 0 0.845014
0.573007 0 0.811917
0.93286 0 0.805066
1 0 0.800748
1 0 0.789532
0.00772107 0.306828 0.728481
0.458534 0.275807 0.697459
0.81651 0.267048 0.688701
1 0.257389 0.679026
1 0.237812 0.659464
0 0.643626 0.692821
0.413413 0.603143 0.652323
0.75993 0.582925 0.63212
1 0.559747 0.608942
1 0.524712 0.573907
0 0.904463 0.708461
0.412909 0.847822 0.65182
0.743145 0.811337 0.615335
1 0.773434 0.577432
1 0.727642 0.53164
0 1 0.67483
0.369665 1 0.608576
0.69398 1 0.566171
1 0.963043 0.524956
1 0.91632 0.478233
0.134752 0 1
0.584466 0 0.998352
0.944701 0 0.991882
1 0 0.987579
1 0 0.976013
0.019501 0.318624 0.915236
0.46978 0.287037 0.883665
0.826917 0.27747 0.874098
1 0.266423 0.86305
1 0.245792 0.84242
0 0.652445 0.8766
0.420768 0.610498 0.834653
0.766049 0.589059 0.813214
1 0.563897 0.788052
1 0.527199 0.751369
0 0.908034 0.887007
0.414633 0.849546 0.828519
0.743938 0.812131 0.791119
1 0.773526 0.752499
1 0.727092 0.706065
0 1 0.849653
0.369177 1 0.783062
0.693187 1 0.740353
1 0.962554 0.699443
1 0.916045 0.652934
0.146715 0 1
0.596933 0 1
0.957565 0 1
1 0 1
1 0 1
0.0320745 0.331182 1
0.481422 0.29868 1
0.837949 0.288502 1
1 0.276219 1
1 0.254368 1
0 0.661875 1
0.428702 0.618433 1
0.772503 0.595514 0.981491
1 0.56846 0.954437
1 0.529854 0.915816
0 0.911803 1
0.41709 0.852003 0.992798
0.745251 0.813443 0.954238
1 0.774334 0.915129
1 0.727535 0.868315
0 1 1
0.369558 1 0.945266
0.693538 1 0.902525
1 0.963088 0.861784
1 0.917037 0.815732
