Sphotoshop/Vintage.cube
TITLE "Generated by Resolve"
LUT_3D_SIZE 9
0.136126 0 0.0607156
0.353292 0 0.0445563
0.583062 0 0.0257877
0.776852 0 0.0175937
0.941955 0 0.0179751
1 0 0.0162661
1 0 0.0129702
1 0 0.0084535
1 0 0.00247196
0.0724346 0.125124 0
0.291676 0.111055 0
0.522911 0.0937362 0
0.718013 0.0868696 0
0.883864 0.0879835 0
1 0.0863508 0
1 0.0829633 0
1 0.07776 0
1 0.070634 0
0.0165103 0.315633 0
0.236332 0.302129 0
0.467643 0.284916 0
0.662333 0.277623 0
0.827283 0.277836 0
1 0.274784 0
1 0.269825 0
1 0.262516 0
1 0.252735 0
0 0.496712 0
0.202747 0.48191 0
0.432837 0.463478 0
0.62565 0.454307 0
0.788373 0.452293 0
0.958907 0.446723 0
1 0.438926 0
1 0.428534 0
1 0.415412 0
0 0.657176 0
0.201678 0.639933 0
0.429175 0.618906 0
0.61912 0.606851 0
0.778729 0.60174 0
0.945983 0.592889 0
1 0.581643 0
1 0.567575 0
1 0.550408 0
0.00311284 0.79852 0
0.216052 0.778134 0
0.440253 0.753811 0
0.626703 0.738293 0
0.782284 0.729122 0
0.945449 0.716182 0
1 0.700282 0
1 0.681651 0
1 0.660426 0
0.0110933 0.927855 0
0.220172 0.903609 0
0.439887 0.8748 0
0.621607 0.854536 0
0.772686 0.840879 0
0.932036 0.824125 0
1 0.80502 0
1 0.783658 0
1 0.760235 0
0.00436408 1 0
0.209216 1 0
0.425269 0.98143 0
0.603967 0.958144 0
0.75259 0.942031 0
0.90988 0.923232 0
1 0.902449 0
1 0.879622 0
1 0.855344 0
0 1 0
0.188571 1 0
0.402731 1 0
0.579828 1 0
0.727352 1 0
0.883772 1 0
1 0.996597 0
1 0.973526 0
1 0.949294 0
0.123857 0 0.371771
0.341497 0 0.356085
0.571374 0 0.337453
0.765499 0 0.329595
0.930739 0 0.330098
1 0 0.328389
1 0 0.325231
1 0 0.320714
1 0 0.314687
0.0611124 0.113787 0.309026
0.280476 0.0998398 0.295079
0.511818 0.0826429 0.277882
0.706935 0.0757916 0.271031
0.87277 0.0768902 0.272114
1 0.0750744 0.270298
1 0.0717021 0.266941
1 0.066331 0.26157
1 0.058854 0.254093
0.00544747 0.304555 0.253361
0.225025 0.290822 0.239628
0.456443 0.273716 0.222507
0.651041 0.266331 0.215122
0.815793 0.266346 0.215137
0.988647 0.263096 0.211887
1 0.257847 0.206653
1 0.250263 0.199069
1 0.240146 0.188952
0 0.485313 0.220752
0.191104 0.470283 0.205707
0.421073 0.451713 0.187152
0.613642 0.442298 0.177737
0.775876 0.439796 0.175235
0.946242 0.434058 0.169497
1 0.42594 0.161379
1 0.415244 0.150683
1 0.401801 0.13724
0 0.645045 0.221378
0.189288 0.627543 0.203891
0.416464 0.60618 0.182528
0.606012 0.593759 0.170108
0.764996 0.587991 0.16434
0.932189 0.579095 0.155428
1 0.567498 0.143847
1 0.552865 0.129213
1 0.535256 0.111589
0 0.785153 0.237659
0.202518 0.764599 0.217121
0.426307 0.739864 0.192386
0.612329 0.723903 0.176425
0.767452 0.71429 0.166796
0.930175 0.700908 0.153414
1 0.684565 0.137087
1 0.665339 0.117845
1 0.643992 0.0964981
0 0.91313 0.244297
0.205081 0.888518 0.219684
0.424353 0.859266 0.190417
0.605722 0.838651 0.169818
0.756512 0.824689 0.155856
0.915557 0.807645 0.138811
1 0.788281 0.119448
1 0.766583 0.0977493
1 0.743175 0.0743267
0 1 0.236103
0.192859 0.997559 0.207462
0.408698 0.964858 0.174777
0.587015 0.941192 0.151095
0.735622 0.925063 0.134981
0.89276 0.906111 0.116014
1 0.885222 0.0951247
1 0.862333 0.0722362
1 0.838026 0.0479286
0 1 0.217014
0.171557 1 0.18616
0.385595 1 0.151659
0.562493 1 0.126589
0.710048 1 0.109407
0.866438 1 0.0896925
1 0.979232 0.0682994
1 0.956207 0.0452735
1 0.932036 0.0211032
0.11986 0 0.582559
0.337621 0 0.56701
0.567712 0 0.548562
0.76202 0 0.540887
0.927413 0 0.541543
1 0 0.539696
1 0 0.536767
1 0 0.53225
1 0 0.525826
0.0576791 0.110353 0.520363
0.276844 0.0962081 0.506218
0.508553 0.0793927 0.489403
0.703716 0.0725719 0.482582
0.86949 0.0736095 0.483619
1 0.0717174 0.481727
1 0.0682383 0.478264
1 0.0627146 0.472724
1 0.0548257 0.464836
0.00221256 0.30132 0.464912
0.221592 0.287388 0.450965
0.45304 0.270314 0.43389
0.647486 0.262776 0.426352
0.811994 0.262547 0.426123
0.984741 0.25919 0.422766
1 0.253697 0.417273
1 0.245777 0.409369
1 0.235279 0.398856
0 0.481712 0.431922
0.187289 0.466468 0.416678
0.417029 0.447669 0.397879
0.609354 0.43801 0.38822
0.771206 0.435126 0.385336
0.941375 0.429191 0.3794
1 0.420691 0.370901
1 0.409522 0.359747
1 0.395865 0.346075
0 0.640452 0.431571
0.184573 0.622827 0.413947
0.411475 0.60119 0.392325
0.600687 0.588434 0.379553
0.759289 0.5823 0.373419
0.926085 0.572992 0.364126
1 0.560983 0.352102
1 0.545846 0.336965
1 0.527825 0.318944
0 0.779599 0.446891
0.196719 0.758801 0.426093
0.420157 0.733715 0.401007
0.605554 0.717144 0.384436
0.760204 0.707042 0.374334
0.922484 0.693217 0.36051
1 0.676539 0.343832
1 0.657008 0.3243
1 0.635355 0.302647
0 0.906371 0.452308
0.197757 0.881209 0.427146
0.416526 0.851438 0.397375
0.597314 0.830243 0.376181
0.748012 0.816205 0.362142
0.906828 0.798917 0.344854
1 0.779248 0.3252
1 0.757458 0.303395
1 0.733883 0.279835
0 1 0.442603
0.184253 0.988937 0.413626
0.399847 0.956008 0.380697
0.577981 0.932174 0.356847
0.726452 0.915908 0.340581
0.883467 0.896803 0.321492
1 0.875639 0.300328
1 0.852872 0.277546
1 0.828534 0.253223
0 1 0.42269
0.16231 1 0.391699
0.376242 1 0.357092
0.553079 1 0.331945
0.700572 1 0.314702
0.856931 0.991119 0.294957
1 0.969619 0.273457
1 0.946761 0.250614
1 0.922652 0.226505
0.120455 0 0.734554
0.338125 0 0.718914
0.568704 0 0.700969
0.763149 0 0.693431
0.92842 0 0.693965
1 0 0.692439
1 0 0.689525
1 0 0.684962
1 0 0.678462
0.0588846 0.111559 0.672984
0.278126 0.0974899 0.658915
0.509896 0.0807355 0.642145
0.705058 0.0739147 0.63534
0.870436 0.0745556 0.635981
1 0.0728923 0.634318
1 0.069276 0.630701
1 0.0635843 0.624994
1 0.0554971 0.616922
0.00352483 0.302647 0.617624
0.222858 0.288655 0.603647
0.4542 0.271473 0.586465
0.648463 0.263752 0.578744
0.812543 0.263096 0.578088
0.985275 0.259724 0.574701
1 0.253986 0.568978
1 0.245518 0.56051
1 0.234989 0.549966
0 0.482338 0.583947
0.188022 0.467185 0.568811
0.417472 0.448112 0.549722
0.609506 0.438163 0.539788
0.771069 0.434989 0.536614
0.940963 0.428779 0.530388
1 0.419959 0.521569
1 0.40824 0.509865
1 0.394339 0.495964
0 0.640391 0.582925
0.184314 0.622568 0.565103
0.410864 0.600595 0.54313
0.59971 0.587457 0.529992
0.758083 0.581094 0.523629
0.924514 0.57142 0.513954
1 0.558907 0.501442
1 0.543145 0.485679
1 0.524727 0.467262
0 0.778515 0.597223
0.195315 0.757397 0.576104
0.418402 0.73196 0.550652
0.603281 0.714855 0.533547
0.757473 0.704311 0.523003
0.919234 0.689967 0.508675
1 0.672847 0.491539
1 0.653101 0.471794
1 0.63122 0.449912
0 0.903914 0.601267
0.194873 0.878309 0.575647
0.413199 0.848112 0.545464
0.593606 0.826535 0.523873
0.743984 0.812161 0.509514
0.902571 0.794659 0.491997
1 0.774777 0.472114
1 0.752865 0.450217
1 0.729168 0.42652
0 1 0.590219
0.180179 0.984878 0.560967
0.395422 0.951598 0.527687
0.573465 0.927642 0.503731
0.721798 0.911238 0.487327
0.878706 0.892042 0.468132
1 0.870802 0.446906
1 0.847974 0.424063
1 0.823606 0.399695
0 1 0.569543
0.15761 1 0.538399
0.371267 1 0.503532
0.548211 1 0.478477
0.695659 1 0.461204
0.851926 0.986114 0.441367
1 0.964706 0.419959
1 0.941909 0.397177
1 0.917891 0.373144
0.124254 0 0.845014
0.342214 0 0.829664
0.573007 0 0.811917
0.76759 0 0.804517
0.93286 0 0.805066
1 0 0.803662
1 0 0.800748
1 0 0.795987
1 0 0.789532
0.0631418 0.115831 0.783902
0.282673 0.102037 0.770123
0.514458 0.0852979 0.753384
0.709606 0.0784619 0.746548
0.874952 0.0790723 0.747143
1 0.0772869 0.745373
1 0.0734875 0.741573
1 0.067277 0.735363
1 0.059266 0.727352
0.00772107 0.306828 0.728481
0.227298 0.293095 0.714748
0.458534 0.275807 0.697459
0.652445 0.267735 0.689372
0.81651 0.267048 0.688701
0.988952 0.263401 0.685039
1 0.257389 0.679026
1 0.248631 0.670283
1 0.237812 0.659464
0 0.486412 0.694697
0.191897 0.471077 0.679347
0.421103 0.451743 0.660014
0.612528 0.441184 0.649454
0.774044 0.437964 0.646235
0.943603 0.431418 0.639704
1 0.422309 0.630579
1 0.410269 0.618555
1 0.396002 0.604288
0 0.643626 0.692821
0.187228 0.625483 0.674678
0.413413 0.603143 0.652323
0.601694 0.589441 0.638621
0.75993 0.582925 0.63212
0.926009 0.572915 0.62211
1 0.559747 0.608942
1 0.543633 0.592828
1 0.524712 0.573907
0 0.780621 0.705989
0.197009 0.759106 0.684459
0.419654 0.733211 0.658564
0.604074 0.715648 0.641001
0.757824 0.704662 0.630014
0.919158 0.689891 0.615259
1 0.672236 0.597589
1 0.652293 0.577661
1 0.630182 0.555535
0 0.904463 0.708461
0.194965 0.878401 0.682399
0.412909 0.847822 0.65182
0.593057 0.825986 0.629984
0.743145 0.811337 0.615335
0.901473 0.793561 0.597559
1 0.773434 0.577432
1 0.751446 0.555444
1 0.727642 0.53164
0 1 0.696162
0.179248 0.983948 0.666697
0.394202 0.950362 0.633112
0.572137 0.926314 0.609064
0.720317 0.909758 0.592508
0.877073 0.89041 0.573175
1 0.869169 0.551919
1 0.846296 0.529046
1 0.821912 0.504662
0 1 0.67483
0.156115 1 0.643549
0.369665 1 0.608576
0.546532 1 0.583474
0.69398 1 0.566171
0.850202 0.98439 0.546288
1 0.963043 0.524956
1 0.940307 0.50222
1 0.91632 0.478233
0.129397 0 0.939269
0.347631 0 0.924178
0.578592 0 0.906615
0.773312 0 0.899367
0.938643 0 0.899947
1 0 0.898604
1 0 0.895689
1 0 0.890684
1 0 0.884291
0.0687572 0.121447 0.87863
0.288502 0.107866 0.865049
0.520302 0.0911421 0.848341
0.715282 0.0841382 0.841321
0.880659 0.0847791 0.841978
1 0.0829023 0.840085
1 0.0789502 0.836133
1 0.0724804 0.829664
1 0.0642252 0.821408
0.0135042 0.312627 0.823377
0.232975 0.298772 0.809522
0.464057 0.281331 0.792081
0.657725 0.273014 0.783764
0.821668 0.272221 0.782971
0.993851 0.268299 0.779065
1 0.261845 0.772595
1 0.252872 0.763638
1 0.241749 0.752499
0 0.491676 0.789059
0.196918 0.476081 0.77348
0.425879 0.456519 0.753918
0.617044 0.445701 0.743084
0.778241 0.442161 0.739544
0.947417 0.435233 0.732631
1 0.425513 0.722896
1 0.413397 0.710781
1 0.398779 0.696178
0 0.647974 0.786282
0.191302 0.629557 0.767865
0.416999 0.606729 0.745037
0.605066 0.592813 0.731121
0.76289 0.585901 0.724208
0.928542 0.575448 0.713756
1 0.561837 0.70013
1 0.545266 0.683558
1 0.525917 0.66421
0 0.783902 0.798367
0.199924 0.76202 0.776486
0.421836 0.735393 0.749874
0.60589 0.717464 0.731945
0.759197 0.706035 0.7205
0.920195 0.690929 0.705394
1 0.672969 0.687434
1 0.652735 0.667201
1 0.63035 0.644831
0 0.906203 0.799329
0.196201 0.879637 0.772763
0.413611 0.848524 0.741634
0.593622 0.826551 0.719676
0.743481 0.811673 0.704799
0.901427 0.793515 0.686625
1 0.773388 0.666499
1 0.751232 0.644358
1 0.727321 0.620447
0 1 0.785733
0.179461 0.984161 0.756024
0.394247 0.950408 0.722271
0.57203 0.926223 0.698085
0.720088 0.909529 0.681392
0.876616 0.889967 0.66183
1 0.868772 0.640635
1 0.845869 0.617731
1 0.821485 0.593347
0 1 0.76376
0.155795 1 0.732357
0.369314 1 0.697337
0.546136 1 0.672175
0.693553 1 0.654856
0.849744 0.983917 0.634943
1 0.962676 0.613687
1 0.939986 0.591012
1 0.915984 0.566995
0.134752 0 1
0.353368 0 1
0.584466 0 0.998352
0.778958 0 0.990875
0.944701 0 0.991882
1 0 0.990555
1 0 0.987579
1 0 0.982498
1 0 0.976013
0.0747845 0.127459 0.97052
0.29456 0.113939 0.956985
0.52639 0.0972152 0.940276
0.721096 0.0899519 0.932998
0.88658 0.0906844 0.933745
1 0.0886549 0.931716
1 0.0844739 0.92752
1 0.0778821 0.920928
1 0.0693675 0.912413
0.019501 0.318624 0.915236
0.238865 0.304662 0.901289
0.46978 0.287037 0.883665
0.663157 0.278447 0.875074
0.826917 0.27747 0.874098
0.998886 0.273335 0.869947
1 0.266423 0.86305
1 0.257313 0.853925
1 0.245792 0.84242
0 0.497124 0.880369
0.20209 0.481254 0.864515
0.430655 0.461295 0.844541
0.621637 0.450294 0.833539
0.782559 0.446479 0.829725
0.951415 0.439231 0.822477
1 0.429084 0.812329
1 0.416602 0.799847
1 0.401572 0.784817
0 0.652445 0.8766
0.195422 0.633692 0.857847
0.420768 0.610498 0.834653
0.608591 0.596338 0.820493
0.766049 0.589059 0.813214
0.931121 0.578027 0.802182
1 0.563897 0.788052
1 0.546899 0.771054
1 0.527199 0.751369
0 0.787213 0.887541
0.202884 0.764981 0.865309
0.424399 0.737957 0.838285
0.607889 0.719463 0.819791
0.760678 0.707515 0.807843
0.921126 0.691859 0.792187
1 0.673777 0.774105
1 0.653315 0.753658
1 0.630655 0.730983
0 0.908034 0.887007
0.197498 0.880949 0.859922
0.414633 0.849546 0.828519
0.594324 0.827253 0.806226
0.743938 0.812131 0.791119
0.901717 0.793805 0.772778
1 0.773526 0.752499
1 0.751247 0.73022
1 0.727092 0.706065
0 1 0.872267
0.17969 0.984375 0.8421
0.394446 0.950607 0.808331
0.572091 0.926284 0.784009
0.720058 0.909499 0.767224
0.876509 0.889845 0.74757
1 0.868605 0.726329
1 0.84567 0.703395
1 0.821149 0.678874
0 1 0.849653
0.155581 1 0.818006
0.369177 1 0.783062
0.545953 1 0.75787
0.693187 1 0.740353
0.849561 0.983749 0.720638
1 0.962554 0.699443
1 0.939971 0.676844
1 0.916045 0.652934
0.140597 0 1
0.359411 0 1
0.590661 0 1
0.785229 0 1
0.951019 0 1
1 0 1
1 0 1
1 0 1
1 0 1
0.0810864 0.133761 1
0.300893 0.120256 1
0.532692 0.103517 1
0.727352 0.0962081 1
0.892714 0.0968338 1
1 0.0946212 1
1 0.0899519 1
1 0.0834058 1
1 0.0746624 1
0.0256962 0.324819 1
0.244953 0.31075 0.989746
0.475364 0.292638 0.971633
0.668864 0.284153 0.963149
0.832349 0.282902 0.961898
1 0.278462 0.957458
1 0.27129 0.950286
1 0.261891 0.940887
1 0.25005 0.929046
0 0.502754 0.968383
0.207477 0.486641 0.95227
0.435523 0.466163 0.931792
0.626352 0.455009 0.920638
0.786954 0.450874 0.916487
0.955459 0.44329 0.908904
1 0.432868 0.898497
1 0.42002 0.885634
1 0.404486 0.870115
0 0.657115 0.963653
0.199725 0.63798 0.944518
0.424628 0.614359 0.920897
0.612161 0.599908 0.906447
0.769284 0.592294 0.898833
0.933791 0.580697 0.887236
1 0.56614 0.872679
1 0.548638 0.855177
1 0.528527 0.835065
0 0.790661 0.973373
0.205814 0.767895 0.950607
0.426932 0.74049 0.923186
0.609979 0.721553 0.90425
0.762341 0.709178 0.89189
0.922362 0.693095 0.875807
1 0.674739 0.857435
1 0.654032 0.836744
1 0.631159 0.81387
0 0.909865 0.971222
0.198947 0.882383 0.94374
0.415839 0.850752 0.912108
0.595239 0.828168 0.889525
0.744533 0.812726 0.874083
0.902159 0.794247 0.855604
1 0.773846 0.835203
1 0.751461 0.812818
1 0.727199 0.788556
0 1 0.955444
0.180301 0.985 0.925093
0.394873 0.951034 0.891142
0.572366 0.926558 0.866651
0.720088 0.909529 0.849638
0.876616 0.889967 0.83006
1 0.868681 0.808774
1 0.84567 0.785779
1 0.821225 0.761318
0 1 0.932189
0.155734 1 0.900526
0.369268 1 0.865522
0.546029 1 0.840299
0.693263 1 0.822797
0.849653 0.983841 0.803098
1 0.962692 0.781949
1 0.940063 0.759319
1 0.916426 0.735698
0.146715 0 1
0.365713 0 1
0.596933 0 1
0.791745 0 1
0.957565 0 1
1 0 1
1 0 1
1 0 1
1 0 1
0.087602 0.140291 1
0.307439 0.126802 1
0.538872 0.109712 1
0.733761 0.102617 1
0.899016 0.103136 1
1 0.100618 1
1 0.0958877 1
1 0.0890364 1
1 0.0800031 1
0.0320745 0.331182 1
0.251164 0.31696 1
0.481422 0.29868 1
0.674723 0.290013 1
0.837949 0.288502 1
1 0.283467 1
1 0.276219 1
1 0.266514 1
1 0.254368 1
0 0.508461 1
0.21294 0.492119 1
0.440742 0.471382 1
0.631251 0.459907 1
0.791455 0.455375 1
0.959365 0.447181 0.992248
1 0.436667 0.981735
1 0.423484 0.968536
1 0.407309 0.952377
0 0.661875 1
0.203891 0.642145 1
0.428702 0.618433 1
0.615839 0.603586 0.989563
0.772503 0.595514 0.981491
0.936553 0.583459 0.969436
1 0.56846 0.954437
1 0.55053 0.936507
1 0.529854 0.915816
0 0.794263 1
0.208774 0.770855 1
0.429435 0.742992 1
0.612039 0.723613 0.985763
0.76405 0.710887 0.973022
0.923781 0.69453 0.956664
1 0.675868 0.938003
1 0.654902 0.917052
1 0.631769 0.893919
0 0.911803 1
0.200443 0.883894 1
0.41709 0.852003 0.992798
0.596277 0.829206 0.969985
0.745251 0.813443 0.954238
0.902815 0.794903 0.935683
1 0.774334 0.915129
1 0.751827 0.892622
1 0.727535 0.868315
0 1 1
0.181033 0.985733 1
0.395468 0.951644 0.971176
0.572839 0.927031 0.946563
0.720424 0.909865 0.929412
0.876921 0.890257 0.909804
1 0.868955 0.888487
1 0.845914 0.865461
1 0.82153 0.841062
0 1 1
0.156085 1 0.980316
0.369558 1 0.945266
0.546242 1 0.919966
0.693538 1 0.902525
0.849989 0.984161 0.882872
1 0.963088 0.861784
1 0.940505 0.839216
1 0.917037 0.815732
